icons/desktop/16/svg/soccer-ball-16.svg

<svg width="16" height="16" viewBox="0 0 16 16" fill="none" xmlns="http://www.w3.org/2000/svg">
<g clip-path="url(#clip0_8069_32686)">
<path d="M7.7063 6.21387C7.88128 6.08705 8.12025 6.08693 8.29517 6.21387L9.80981 7.31543C9.98573 7.44242 10.0594 7.66808 9.99243 7.87402L9.41333 9.65527C9.34628 9.86119 9.15371 10 8.93677 10H7.06372C6.84694 9.99988 6.65519 9.86102 6.58813 9.65527L6.00903 7.87402C5.94209 7.66819 6.01598 7.44249 6.19067 7.31543L7.7063 6.21387Z" fill="black"/>
<path fill-rule="evenodd" clip-rule="evenodd" d="M8.00024 0C12.4184 0.00013194 16.0002 3.5818 16.0002 8C16.0002 12.4182 12.4184 15.9999 8.00024 16C3.58197 16 0.000244141 12.4183 0.000244141 8C0.000244141 3.58172 3.58197 0 8.00024 0ZM8.29321 3.68652C8.11822 3.81352 7.88032 3.81352 7.70532 3.68652L5.42505 2.03027C4.60837 2.38301 3.87905 2.89889 3.27661 3.53613L4.31958 6.25391C4.39758 6.45591 4.33621 6.68627 4.16821 6.82227L1.56665 8.92773C1.67781 9.70545 1.92536 10.4391 2.28638 11.1025L4.79028 10.9717C5.00616 10.9608 5.20548 11.0901 5.28345 11.292L6.44165 14.3096C6.94107 14.4325 7.46288 14.5 8.00024 14.5C8.55865 14.5 9.10031 14.4284 9.61743 14.2959L10.3655 11.5078C10.4215 11.2991 10.6058 11.1489 10.8215 11.1377L13.7737 10.9824C14.1277 10.2985 14.364 9.54484 14.4553 8.74609L11.9553 7.12207C11.7734 7.0041 11.6885 6.7822 11.7444 6.57324L12.594 3.40137C12.0171 2.82504 11.3321 2.35703 10.5725 2.0293L8.29321 3.68652Z" fill="black"/>
</g>
<defs>
<clipPath id="clip0_8069_32686">
<rect width="16" height="16" fill="white"/>
</clipPath>
</defs>
</svg>

<!-- This Source Code Form is subject to the terms of the Mozilla Public
   - License, v. 2.0. If a copy of the MPL was not distributed with this
   - file, You can obtain one at http://mozilla.org/MPL/2.0/. -->
<svg xmlns="http://www.w3.org/2000/svg" width="16" height="16" fill="context-fill" fill-opacity="context-fill-opacity" viewBox="0 0 16 16">
    <g clip-path="url(#clip0_8069_32686)">
        <path d="M7.706 6.214a.5.5 0 0 1 .59 0L9.81 7.315c.176.127.25.353.182.559l-.579 1.781a.5.5 0 0 1-.476.345H7.064a.5.5 0 0 1-.476-.345L6.01 7.874a.5.5 0 0 1 .182-.559z" />
        <path fill-rule="evenodd" d="M8 0a8 8 0 1 1 0 16A8 8 0 0 1 8 0m.293 3.687a.5.5 0 0 1-.588 0L5.425 2.03a6.5 6.5 0 0 0-2.148 1.506L4.32 6.254a.5.5 0 0 1-.152.568L1.567 8.928c.11.777.358 1.511.72 2.174l2.503-.13a.5.5 0 0 1 .493.32l1.159 3.018a6.5 6.5 0 0 0 3.175-.014l.749-2.788a.5.5 0 0 1 .456-.37l2.952-.156a6.5 6.5 0 0 0 .681-2.236l-2.5-1.624a.5.5 0 0 1-.21-.549l.849-3.172a6.5 6.5 0 0 0-2.021-1.372z" clip-rule="evenodd" />
    </g>
</svg>
